images/usecases/scada/pipe.svg

<svg width="334" height="290" fill="none" xmlns="http://www.w3.org/2000/svg"><rect x=".75" y="43.75" width="158.5" height="158.5" rx="39.25" fill="#fff" stroke="#3E9AF8" stroke-width="1.5"/><path d="M28.398 101.4h103.2v43.2h-103.2v-43.2Z" fill="#fff"/><path d="M28.398 101.4h103.2v43.2h-103.2v-43.2Z" fill="url(#a)"/><path d="M29.298 102.3h101.4v41.4h-101.4v-41.4Z" stroke="#000" stroke-opacity=".12" stroke-width="1.8"/><rect x="132.502" y="93.9" width="6.6" height="58.2" rx="3.3" fill="#D9D9D9" stroke="#727171" stroke-width="1.8"/><rect x="20.9" y="93.9" width="6.6" height="58.2" rx="3.3" fill="#D9D9D9" stroke="#727171" stroke-width="1.8"/><rect x="174.75" y=".75" width="158.5" height="158.5" rx="39.25" fill="#fff" stroke="#3E9AF8" stroke-width="1.5"/><rect x="204.75" y="30.75" width="98.5" height="98.5" rx="39.25" stroke="#3E9AF8" stroke-width="1.5"/><rect x="204.5" y="30.5" width="99" height="99" rx="23.5" fill="#fff"/><rect x="204.5" y="30.5" width="99" height="99" rx="23.5" fill="url(#b)"/><rect x="204.5" y="30.5" width="99" height="99" rx="23.5" fill="url(#c)"/><rect x="204.5" y="30.5" width="99" height="99" rx="23.5" stroke="#fff"/><path d="M260.666 82.309c0 2.04-.791 3.996-2.197 5.439a7.48 7.48 0 0 1-2.804 1.813m10-6.74c0-10.961-11.666-19.487-11.666-19.487s-11.667 8.526-11.667 19.487c0 3.23 1.229 6.329 3.417 8.613 2.188 2.284 5.156 3.566 8.25 3.566 3.094 0 6.061-1.283 8.249-3.567 2.188-2.284 3.417-5.382 3.417-8.612Z" stroke="#1C943E" stroke-width="3" stroke-linecap="round" stroke-linejoin="round"/><rect x="74.75" y="130.75" width="158.5" height="158.5" rx="39.25" fill="#fff" stroke="#3E9AF8" stroke-width="1.5"/><path d="M102.398 188.4h103.2v43.2h-103.2v-43.2Z" fill="#fff"/><path d="M102.398 188.4h103.2v43.2h-103.2v-43.2Z" fill="url(#d)"/><path d="M103.298 189.3h101.4v41.4h-101.4v-41.4Z" stroke="#000" stroke-opacity=".12" stroke-width="1.8"/><rect x="206.502" y="180.9" width="6.6" height="58.2" rx="3.3" fill="#D9D9D9" stroke="#727171" stroke-width="1.8"/><rect x="94.9" y="180.9" width="6.6" height="58.2" rx="3.3" fill="#D9D9D9" stroke="#727171" stroke-width="1.8"/><path d="M136.3 177.6c0 1.16.94 2.1 2.1 2.1h31.2a2.1 2.1 0 0 0 2.1-2.1v-22.2a5.1 5.1 0 0 0-5.1-5.1h-25.2a5.1 5.1 0 0 0-5.1 5.1v22.2Z" fill="#1C943E"/><path d="M136.3 177.6c0 1.16.94 2.1 2.1 2.1h31.2a2.1 2.1 0 0 0 2.1-2.1v-22.2a5.1 5.1 0 0 0-5.1-5.1h-25.2a5.1 5.1 0 0 0-5.1 5.1v22.2Z" fill="url(#e)"/><path d="M136.3 177.6c0 1.16.94 2.1 2.1 2.1h31.2a2.1 2.1 0 0 0 2.1-2.1v-22.2a5.1 5.1 0 0 0-5.1-5.1h-25.2a5.1 5.1 0 0 0-5.1 5.1v22.2Z" stroke="#fff" stroke-width=".6"/><path d="M160 231.6v-43.2h-12.6v43.2H160Z" fill="#1C943E"/><path d="M160 231.6v-43.2h-12.6v43.2H160Z" fill="url(#f)"/><path d="M160 231.6v-43.2h-12.6v43.2H160Z" fill="url(#g)"/><path d="M159.7 231.3v-42.6h-12v42.6h12Z" stroke="#000" stroke-opacity=".12" stroke-width=".6"/><path d="M169.6 188.4a2.4 2.4 0 0 0 2.4-2.4v-3.6a2.4 2.4 0 0 0-2.4-2.4h-31.2a2.4 2.4 0 0 0-2.4 2.4v3.6a2.4 2.4 0 0 0 2.4 2.4h31.2Z" fill="#647484"/><path d="M169.6 188.4a2.4 2.4 0 0 0 2.4-2.4v-3.6a2.4 2.4 0 0 0-2.4-2.4h-31.2a2.4 2.4 0 0 0-2.4 2.4v3.6a2.4 2.4 0 0 0 2.4 2.4h31.2Z" fill="url(#h)"/><path d="M169.6 187.5a1.5 1.5 0 0 0 1.5-1.5v-3.6a1.5 1.5 0 0 0-1.5-1.5h-31.2a1.5 1.5 0 0 0-1.5 1.5v3.6a1.5 1.5 0 0 0 1.5 1.5h31.2Z" stroke="#000" stroke-opacity=".12" stroke-width="1.8"/><defs><linearGradient id="a" x1="55.23" y1="101.4" x2="55.116" y2="144.604" gradientUnits="userSpaceOnUse"><stop stop-color="#727171"/><stop offset=".264" stop-color="#727171" stop-opacity=".35"/><stop offset=".418" stop-color="#727171" stop-opacity=".1"/><stop offset=".498" stop-color="#fff" stop-opacity="0"/><stop offset=".581" stop-color="#727171" stop-opacity=".1"/><stop offset=".719" stop-color="#727171" stop-opacity=".35"/><stop offset="1" stop-color="#727171"/></linearGradient><linearGradient id="b" x1="304" y1="80.119" x2="205.5" y2="79.881" gradientUnits="userSpaceOnUse"><stop stop-color="#020202" stop-opacity=".2"/><stop offset=".05" stop-color="#020202" stop-opacity=".12"/><stop offset=".15" stop-color="#fff" stop-opacity=".12"/><stop offset=".511" stop-color="#fff" stop-opacity=".2"/><stop offset=".85" stop-color="#fff" stop-opacity=".12"/><stop offset=".95" stop-color="#020202" stop-opacity=".12"/><stop offset=".993" stop-color="#020202" stop-opacity=".2"/></linearGradient><linearGradient id="c" x1="254" y1="30" x2="254" y2="130" gradientUnits="userSpaceOnUse"><stop offset=".01" stop-color="#020202" stop-opacity=".2"/><stop offset=".05" stop-color="#020202" stop-opacity=".12"/><stop offset=".153" stop-color="#fff" stop-opacity=".12"/><stop offset=".5" stop-color="#fff" stop-opacity=".2"/><stop offset=".85" stop-color="#fff" stop-opacity=".12"/><stop offset=".95" stop-opacity=".12"/><stop offset="1" stop-opacity=".2"/></linearGradient><linearGradient id="d" x1="129.23" y1="188.4" x2="129.116" y2="231.604" gradientUnits="userSpaceOnUse"><stop stop-color="#727171"/><stop offset=".264" stop-color="#727171" stop-opacity=".35"/><stop offset=".418" stop-color="#727171" stop-opacity=".1"/><stop offset=".498" stop-color="#fff" stop-opacity="0"/><stop offset=".581" stop-color="#727171" stop-opacity=".1"/><stop offset=".719" stop-color="#727171" stop-opacity=".35"/><stop offset="1" stop-color="#727171"/></linearGradient><linearGradient id="e" x1="174.582" y1="154.824" x2="133.423" y2="155.418" gradientUnits="userSpaceOnUse"><stop stop-color="#020202" stop-opacity=".35"/><stop offset=".141" stop-color="#020202" stop-opacity=".12"/><stop offset=".399" stop-color="#fff" stop-opacity=".12"/><stop offset=".498" stop-color="#fff" stop-opacity=".3"/><stop offset=".597" stop-color="#fff" stop-opacity=".12"/><stop offset=".859" stop-color="#020202" stop-opacity=".12"/><stop offset="1" stop-color="#020202" stop-opacity=".35"/></linearGradient><linearGradient id="f" x1="153.685" y1="188.4" x2="154.038" y2="230.949" gradientUnits="userSpaceOnUse"><stop stop-color="#020202" stop-opacity=".35"/><stop offset=".158" stop-color="#020202" stop-opacity=".15"/><stop offset=".282" stop-color="#fff" stop-opacity=".12"/><stop offset=".503" stop-color="#fff" stop-opacity=".2"/><stop offset=".721" stop-color="#fff" stop-opacity=".12"/><stop offset=".842" stop-color="#020202" stop-opacity=".15"/><stop offset=".993" stop-color="#020202" stop-opacity=".35"/></linearGradient><linearGradient id="g" x1="160" y1="210" x2="147.4" y2="210" gradientUnits="userSpaceOnUse"><stop offset=".01" stop-color="#020202" stop-opacity=".2"/><stop offset=".05" stop-color="#020202" stop-opacity=".12"/><stop offset=".153" stop-color="#fff" stop-opacity=".12"/><stop offset=".5" stop-color="#fff" stop-opacity=".2"/><stop offset=".85" stop-color="#fff" stop-opacity=".12"/><stop offset=".95" stop-opacity=".12"/><stop offset="1" stop-opacity=".2"/></linearGradient><linearGradient id="h" x1="137.372" y1="183.469" x2="170.266" y2="184.286" gradientUnits="userSpaceOnUse"><stop stop-color="#020202" stop-opacity=".2"/><stop offset=".091" stop-color="#020202" stop-opacity=".18"/><stop offset=".1" stop-color="#020202" stop-opacity=".1"/><stop offset=".205" stop-color="#020202" stop-opacity=".08"/><stop offset=".216" stop-color="#020202" stop-opacity=".05"/><stop offset=".37" stop-color="#020202" stop-opacity=".02"/><stop offset=".378" stop-color="#fff" stop-opacity=".01"/><stop offset=".624" stop-color="#fff" stop-opacity=".01"/><stop offset=".631" stop-color="#020202" stop-opacity=".02"/><stop offset=".776" stop-color="#020202" stop-opacity=".05"/><stop offset=".79" stop-color="#020202" stop-opacity=".08"/><stop offset=".9" stop-color="#020202" stop-opacity=".1"/><stop offset=".908" stop-color="#020202" stop-opacity=".18"/><stop offset="1" stop-color="#020202" stop-opacity=".2"/></linearGradient></defs></svg>

<svg width="334" height="290" viewBox="0 0 334 290" fill="none" xmlns="http://www.w3.org/2000/svg"><rect x="0.75" y="43.75" width="158.5" height="158.5" rx="39.25" fill="white" stroke="#3E9AF8" stroke-width="1.5"/><path d="M28.3984 101.4H131.598V144.6H28.3984V101.4Z" fill="white"/><path d="M28.3984 101.4H131.598V144.6H28.3984V101.4Z" fill="url(#paint0_linear_10287_77103)"/><path d="M29.2984 102.3H130.698V143.7H29.2984V102.3Z" stroke="black" stroke-opacity="0.12" stroke-width="1.8"/><rect x="132.502" y="93.9" width="6.6" height="58.2" rx="3.3" fill="#D9D9D9" stroke="#727171" stroke-width="1.8"/><rect x="20.9" y="93.9" width="6.6" height="58.2" rx="3.3" fill="#D9D9D9" stroke="#727171" stroke-width="1.8"/><rect x="174.75" y="0.75" width="158.5" height="158.5" rx="39.25" fill="white" stroke="#3E9AF8" stroke-width="1.5"/><rect x="204.75" y="30.75" width="98.5" height="98.5" rx="39.25" stroke="#3E9AF8" stroke-width="1.5"/><rect x="204.5" y="30.5" width="99" height="99" rx="23.5" fill="white"/><rect x="204.5" y="30.5" width="99" height="99" rx="23.5" fill="url(#paint1_linear_10287_77103)"/><rect x="204.5" y="30.5" width="99" height="99" rx="23.5" fill="url(#paint2_linear_10287_77103)"/><rect x="204.5" y="30.5" width="99" height="99" rx="23.5" stroke="white"/><path d="M260.666 82.3087C260.666 84.3487 259.875 86.3053 258.469 87.7478C257.67 88.5668 256.71 89.1825 255.665 89.5613M265.665 82.8212C265.665 71.8596 253.999 63.334 253.999 63.334C253.999 63.334 242.332 71.8596 242.332 82.8212C242.332 86.0513 243.561 89.1495 245.749 91.4337C247.937 93.7177 250.905 94.9996 253.999 94.9996C257.093 94.9996 260.06 93.717 262.248 91.433C264.436 89.1488 265.665 86.0513 265.665 82.8212Z" stroke="#1C943E" stroke-width="3" stroke-linecap="round" stroke-linejoin="round"/><rect x="74.75" y="130.75" width="158.5" height="158.5" rx="39.25" fill="white" stroke="#3E9AF8" stroke-width="1.5"/><path d="M102.398 188.4H205.598V231.6H102.398V188.4Z" fill="white"/><path d="M102.398 188.4H205.598V231.6H102.398V188.4Z" fill="url(#paint3_linear_10287_77103)"/><path d="M103.298 189.3H204.698V230.7H103.298V189.3Z" stroke="black" stroke-opacity="0.12" stroke-width="1.8"/><rect x="206.502" y="180.9" width="6.6" height="58.2" rx="3.3" fill="#D9D9D9" stroke="#727171" stroke-width="1.8"/><rect x="94.9" y="180.9" width="6.6" height="58.2" rx="3.3" fill="#D9D9D9" stroke="#727171" stroke-width="1.8"/><path d="M136.3 177.6C136.3 178.76 137.24 179.7 138.4 179.7L169.6 179.7C170.76 179.7 171.7 178.76 171.7 177.6V155.4C171.7 152.583 169.417 150.3 166.6 150.3H141.4C138.583 150.3 136.3 152.583 136.3 155.4V177.6Z" fill="#1C943E"/><path d="M136.3 177.6C136.3 178.76 137.24 179.7 138.4 179.7L169.6 179.7C170.76 179.7 171.7 178.76 171.7 177.6V155.4C171.7 152.583 169.417 150.3 166.6 150.3H141.4C138.583 150.3 136.3 152.583 136.3 155.4V177.6Z" fill="url(#paint4_linear_10287_77103)"/><path d="M136.3 177.6C136.3 178.76 137.24 179.7 138.4 179.7L169.6 179.7C170.76 179.7 171.7 178.76 171.7 177.6V155.4C171.7 152.583 169.417 150.3 166.6 150.3H141.4C138.583 150.3 136.3 152.583 136.3 155.4V177.6Z" stroke="white" stroke-width="0.6"/><path d="M160 231.6L160 188.4H147.4V231.6H160Z" fill="#1C943E"/><path d="M160 231.6L160 188.4H147.4V231.6H160Z" fill="url(#paint5_linear_10287_77103)"/><path d="M160 231.6L160 188.4H147.4V231.6H160Z" fill="url(#paint6_linear_10287_77103)"/><path d="M159.7 231.3L159.7 188.7H147.7V231.3H159.7Z" stroke="black" stroke-opacity="0.12" stroke-width="0.6"/><path d="M169.6 188.4C170.925 188.4 172 187.326 172 186L172 182.4C172 181.075 170.925 180 169.6 180H138.4C137.075 180 136 181.075 136 182.4V186C136 187.326 137.075 188.4 138.4 188.4H169.6Z" fill="#647484"/><path d="M169.6 188.4C170.925 188.4 172 187.326 172 186L172 182.4C172 181.075 170.925 180 169.6 180H138.4C137.075 180 136 181.075 136 182.4V186C136 187.326 137.075 188.4 138.4 188.4H169.6Z" fill="url(#paint7_linear_10287_77103)"/><path d="M169.6 187.5C170.428 187.5 171.1 186.829 171.1 186L171.1 182.4C171.1 181.572 170.428 180.9 169.6 180.9H138.4C137.572 180.9 136.9 181.572 136.9 182.4V186C136.9 186.829 137.572 187.5 138.4 187.5H169.6Z" stroke="black" stroke-opacity="0.12" stroke-width="1.8"/><defs><linearGradient id="paint0_linear_10287_77103" x1="55.2304" y1="101.4" x2="55.1163" y2="144.604" gradientUnits="userSpaceOnUse"><stop stop-color="#727171"/><stop offset="0.263882" stop-color="#727171" stop-opacity="0.35"/><stop offset="0.417594" stop-color="#727171" stop-opacity="0.1"/><stop offset="0.498292" stop-color="white" stop-opacity="0"/><stop offset="0.580942" stop-color="#727171" stop-opacity="0.1"/><stop offset="0.718554" stop-color="#727171" stop-opacity="0.35"/><stop offset="1" stop-color="#727171"/></linearGradient><linearGradient id="paint1_linear_10287_77103" x1="304" y1="80.1191" x2="205.5" y2="79.8809" gradientUnits="userSpaceOnUse"><stop stop-color="#020202" stop-opacity="0.2"/><stop offset="0.05" stop-color="#020202" stop-opacity="0.12"/><stop offset="0.15" stop-color="white" stop-opacity="0.12"/><stop offset="0.511138" stop-color="white" stop-opacity="0.2"/><stop offset="0.85" stop-color="white" stop-opacity="0.12"/><stop offset="0.95" stop-color="#020202" stop-opacity="0.12"/><stop offset="0.993413" stop-color="#020202" stop-opacity="0.2"/></linearGradient><linearGradient id="paint2_linear_10287_77103" x1="254" y1="30" x2="254" y2="130" gradientUnits="userSpaceOnUse"><stop offset="0.01" stop-color="#020202" stop-opacity="0.2"/><stop offset="0.05" stop-color="#020202" stop-opacity="0.12"/><stop offset="0.153434" stop-color="white" stop-opacity="0.12"/><stop offset="0.5" stop-color="white" stop-opacity="0.2"/><stop offset="0.85" stop-color="white" stop-opacity="0.12"/><stop offset="0.95" stop-opacity="0.12"/><stop offset="1" stop-opacity="0.2"/></linearGradient><linearGradient id="paint3_linear_10287_77103" x1="129.23" y1="188.4" x2="129.116" y2="231.604" gradientUnits="userSpaceOnUse"><stop stop-color="#727171"/><stop offset="0.263882" stop-color="#727171" stop-opacity="0.35"/><stop offset="0.417594" stop-color="#727171" stop-opacity="0.1"/><stop offset="0.498292" stop-color="white" stop-opacity="0"/><stop offset="0.580942" stop-color="#727171" stop-opacity="0.1"/><stop offset="0.718554" stop-color="#727171" stop-opacity="0.35"/><stop offset="1" stop-color="#727171"/></linearGradient><linearGradient id="paint4_linear_10287_77103" x1="174.582" y1="154.824" x2="133.423" y2="155.418" gradientUnits="userSpaceOnUse"><stop stop-color="#020202" stop-opacity="0.35"/><stop offset="0.140932" stop-color="#020202" stop-opacity="0.12"/><stop offset="0.399371" stop-color="white" stop-opacity="0.12"/><stop offset="0.498292" stop-color="white" stop-opacity="0.3"/><stop offset="0.597206" stop-color="white" stop-opacity="0.12"/><stop offset="0.859456" stop-color="#020202" stop-opacity="0.12"/><stop offset="1" stop-color="#020202" stop-opacity="0.35"/></linearGradient><linearGradient id="paint5_linear_10287_77103" x1="153.685" y1="188.4" x2="154.038" y2="230.949" gradientUnits="userSpaceOnUse"><stop stop-color="#020202" stop-opacity="0.35"/><stop offset="0.158229" stop-color="#020202" stop-opacity="0.15"/><stop offset="0.281932" stop-color="white" stop-opacity="0.12"/><stop offset="0.502909" stop-color="white" stop-opacity="0.2"/><stop offset="0.721285" stop-color="white" stop-opacity="0.12"/><stop offset="0.842295" stop-color="#020202" stop-opacity="0.15"/><stop offset="0.993413" stop-color="#020202" stop-opacity="0.35"/></linearGradient><linearGradient id="paint6_linear_10287_77103" x1="160" y1="210" x2="147.4" y2="210" gradientUnits="userSpaceOnUse"><stop offset="0.01" stop-color="#020202" stop-opacity="0.2"/><stop offset="0.05" stop-color="#020202" stop-opacity="0.12"/><stop offset="0.153434" stop-color="white" stop-opacity="0.12"/><stop offset="0.5" stop-color="white" stop-opacity="0.2"/><stop offset="0.85" stop-color="white" stop-opacity="0.12"/><stop offset="0.95" stop-opacity="0.12"/><stop offset="1" stop-opacity="0.2"/></linearGradient><linearGradient id="paint7_linear_10287_77103" x1="137.372" y1="183.469" x2="170.266" y2="184.286" gradientUnits="userSpaceOnUse"><stop stop-color="#020202" stop-opacity="0.2"/><stop offset="0.0909593" stop-color="#020202" stop-opacity="0.18"/><stop offset="0.1" stop-color="#020202" stop-opacity="0.1"/><stop offset="0.205134" stop-color="#020202" stop-opacity="0.08"/><stop offset="0.215552" stop-color="#020202" stop-opacity="0.05"/><stop offset="0.369618" stop-color="#020202" stop-opacity="0.02"/><stop offset="0.377684" stop-color="white" stop-opacity="0.01"/><stop offset="0.624129" stop-color="white" stop-opacity="0.01"/><stop offset="0.631298" stop-color="#020202" stop-opacity="0.02"/><stop offset="0.776013" stop-color="#020202" stop-opacity="0.05"/><stop offset="0.7898" stop-color="#020202" stop-opacity="0.08"/><stop offset="0.9" stop-color="#020202" stop-opacity="0.1"/><stop offset="0.908458" stop-color="#020202" stop-opacity="0.18"/><stop offset="1" stop-color="#020202" stop-opacity="0.2"/></linearGradient></defs></svg>
